build/svg/cmd/sc_charmapcontrol.svg

<?xml version="1.0" encoding="UTF-8" standalone="no"?>
<svg
   xmlns:dc="http://purl.org/dc/elements/1.1/"
   xmlns:cc="http://creativecommons.org/ns#"
   xmlns:rdf="http://www.w3.org/1999/02/22-rdf-syntax-ns#"
   xmlns:svg="http://www.w3.org/2000/svg"
   xmlns="http://www.w3.org/2000/svg"
   xmlns:sodipodi="http://sodipodi.sourceforge.net/DTD/sodipodi-0.dtd"
   xmlns:inkscape="http://www.inkscape.org/namespaces/inkscape"
   viewBox="0 0 16 16"
   version="1.1"
   id="svg4"
   sodipodi:docname="sc_charmapcontrol.svg"
   inkscape:version="0.92.4 (5da689c313, 2019-01-14)"
   inkscape:export-filename="/home/jupiter007/Libreoffice yaru theme fullcolor/build/cmd/sc_charmapcontrol.png"
   inkscape:export-xdpi="95"
   inkscape:export-ydpi="95">
  <metadata
     id="metadata10">
    <rdf:RDF>
      <cc:Work
         rdf:about="">
        <dc:format>image/svg+xml</dc:format>
        <dc:type
           rdf:resource="http://purl.org/dc/dcmitype/StillImage" />
      </cc:Work>
    </rdf:RDF>
  </metadata>
  <defs
     id="defs8" />
  <sodipodi:namedview
     pagecolor="#ffffff"
     bordercolor="#666666"
     borderopacity="1"
     objecttolerance="10"
     gridtolerance="10"
     guidetolerance="10"
     inkscape:pageopacity="0"
     inkscape:pageshadow="2"
     inkscape:window-width="1920"
     inkscape:window-height="1011"
     id="namedview6"
     showgrid="true"
     inkscape:zoom="20.85965"
     inkscape:cx="0.81166391"
     inkscape:cy="8.4292171"
     inkscape:window-x="1920"
     inkscape:window-y="32"
     inkscape:window-maximized="1"
     inkscape:current-layer="svg4">
    <inkscape:grid
       type="xygrid"
       id="grid829" />
  </sodipodi:namedview>
  <circle
     style="opacity:1;fill:#fa9381;fill-opacity:1;stroke:none;stroke-width:2.33333325;stroke-linecap:round;stroke-linejoin:round;stroke-miterlimit:4;stroke-dasharray:none;stroke-opacity:1"
     id="path819"
     cx="8"
     cy="8"
     r="7" />
  <path
     d="M 7.9999999,4.0000006 A 3.9999979,3.4999975 0 0 0 4.0000006,7.5 3.9999979,3.4999975 0 0 0 6.0000002,10.520833 l 0.1666667,0.479166 H 4.5000005 C 4.1028719,10.893574 4.0165228,10.669866 4.0000006,10.5625 v 1.437499 h 3.2083328 v -1 -0.208333 L 6.9375001,10.6875 A 2.4999865,3.2499895 0 0 1 5.5000003,7.7499999 2.4999865,3.2499895 0 0 1 7.9999999,4.5000005 2.4999865,3.2499895 0 0 1 10.499999,7.7499999 2.4999865,3.2499895 0 0 1 9.0624994,10.6875 l -0.270833,0.104166 v 0.208333 1 H 11.999999 V 10.5625 c -0.01652,0.107366 -0.102871,0.331074 -0.5,0.437499 H 9.8333334 l 0.166666,-0.479166 A 3.9999979,3.4999975 0 0 0 11.999999,7.5 3.9999979,3.4999975 0 0 0 7.9999999,4.0000006 Z"
     id="path2"
     inkscape:connector-curvature="0"
     style="fill:#ffffff;fill-opacity:1;stroke:#ffffff;stroke-width:0.3;stroke-linejoin:round;stroke-miterlimit:4;stroke-dasharray:none;stroke-opacity:1" />
  <circle
     style="opacity:1;vector-effect:none;fill:#46a926;fill-opacity:1;stroke:none;stroke-width:3.49999976;stroke-linecap:butt;stroke-linejoin:round;stroke-miterlimit:4;stroke-dasharray:none;stroke-dashoffset:0;stroke-opacity:1"
     id="path2644"
     cy="12.5"
     cx="12.499998"
     r="3.5" />
  <path
     inkscape:connector-curvature="0"
     id="path1063"
     overflow="visible"
     font-weight="400"
     style="color:#000000;font-weight:400;line-height:normal;font-family:sans-serif;text-indent:0;text-align:start;text-decoration:none;text-decoration-line:none;text-decoration-style:solid;text-decoration-color:#000000;text-transform:none;white-space:normal;overflow:visible;isolation:auto;mix-blend-mode:normal;fill:#ffffff;fill-opacity:1;marker:none"
     d="m 12,10 v 2 H 9.999999 v 1 H 12 v 2 h 1 v -2 h 2 v -1 h -2 v -2 z" />
</svg>

<svg xmlns="http://www.w3.org/2000/svg" viewBox="0 0 16 16"><circle cx="8" cy="8" r="7" fill="#fa9381"/><path d="M8 4a4 3.5 0 00-4 3.5 4 3.5 0 002 3.02l.167.48H4.5c-.397-.106-.483-.33-.5-.438V12h3.208v-1.208l-.27-.104A2.5 3.25 0 015.5 7.75 2.5 3.25 0 018 4.5a2.5 3.25 0 012.5 3.25 2.5 3.25 0 01-1.438 2.938l-.27.104V12H12v-1.438c-.017.108-.103.332-.5.438H9.833l.167-.48a4 3.5 0 002-3.02A4 3.5 0 008 4z" fill="#fff" stroke="#fff" stroke-width=".3" stroke-linejoin="round"/><circle cy="12.5" cx="12.5" r="3.5" fill="#46a926"/><path overflow="visible" font-weight="400" style="line-height:normal;text-indent:0;text-align:start;text-decoration-line:none;text-decoration-style:solid;text-decoration-color:#000;text-transform:none;white-space:normal;isolation:auto;mix-blend-mode:normal;marker:none" d="M12 10v2h-2v1h2v2h1v-2h2v-1h-2v-2z" color="#000" font-family="sans-serif" fill="#fff"/></svg>
